X:558
T:Miss MacInnes
R:Reel
C:William Marshall
B:The Athole Collection
M:C|
L:1/8
K:F
d|cF F/F/F dcBA|GABc dGBd|cF F/F/F dcBA|cfeg fFB:|
d|cfAf cfaf|egba gGBd|cfAf Bfcf|dfeg fFBd|dfAf cfaf|
egba gGBd|bgaf agfe|gfed cFB||

